src/assets/icons/calendar-events,simple,today.svg

<svg width="48" height="48" viewBox="0 0 48 48" fill="none" xmlns="http://www.w3.org/2000/svg">
<rect opacity="0.2" x="5" y="5" width="38" height="38" rx="4" fill="black"/>
<path d="M5 13C5 9.22876 5 7.34315 6.17157 6.17157C7.34315 5 9.22876 5 13 5H35C38.7712 5 40.6569 5 41.8284 6.17157C43 7.34315 43 9.22876 43 13V15H5V13Z" fill="black"/>
<path d="M17 34L20.5858 37.5858C21.3668 38.3669 22.6332 38.3669 23.4142 37.5858L35.5858 25.4142C36.3668 24.6332 36.3668 23.3669 35.5858 22.5858L33.4142 20.4142C32.6332 19.6332 31.3668 19.6332 30.5858 20.4142L17 34Z" fill="black"/>
<path d="M22 29L17 34L12.4142 29.4142C11.6332 28.6332 11.6332 27.3668 12.4142 26.5858L14.5858 24.4142C15.3668 23.6332 16.6332 23.6332 17.4142 24.4142L22 29Z" fill="black"/>
</svg>

<svg xmlns="http://www.w3.org/2000/svg" width="48" height="48" fill="none" viewBox="0 0 48 48">
  <rect width="38" height="38" x="5" y="5" fill="#000" opacity=".2" rx="4"/>
  <path fill="#000" d="M5 13c0-3.771 0-5.657 1.172-6.828C7.343 5 9.229 5 13 5h22c3.771 0 5.657 0 6.828 1.172C43 7.343 43 9.229 43 13v2H5v-2zM17 34l3.586 3.586a2 2 0 002.828 0l12.172-12.172a2 2 0 000-2.828l-2.172-2.172a2 2 0 00-2.828 0L17 34z"/>
  <path fill="#000" d="M22 29l-5 5-4.586-4.586a2 2 0 010-2.828l2.172-2.172a2 2 0 012.828 0L22 29z"/>
</svg>
